actions/22x22-light/archive-remove.svg

<svg viewBox="0 0 22 22" xmlns="http://www.w3.org/2000/svg"><path d="m3.8867188 3c-.4924979 0-.8867188.3575813-.8867188.8007812v14.3984378c0 .4432.3942209.800781.8867188.800781h14.2265622c.492498 0 .886719-.357581.886719-.800781v-14.3984378c0-.4432-.394221-.8007812-.886719-.8007812zm5.484375 5c .13471 0 .24953.046295.34375.140625l1.4843752 1.4863281 1.484375-1.4863281c.0943-.0943.20899-.140625.34375-.140625.13465 0 .24947.046295.34375.140625l.6875.6875c.0942.0943.140625.20904.140625.34375 0 .1347-.046295.24952-.140625.34375l-1.486328 1.484375 1.486328 1.484375c.0943.0943.140625.20904.140625.34375 0 .1347-.046295.24952-.140625.34375l-.6875.6875c-.0942.0942-.2091.140625-.34375.140625-.13483 0-.24946-.046305-.34375-.140625l-1.484375-1.486328-1.4843752 1.486328c-.0943001.0942-.2090401.140625-.34375.140625-.1346401 0-.24946-.046305-.34375-.140625l-.6875-.6875c-.0943001-.0943-.1406251-.20905-.140625-.34375 0-.13471.046405-.24947.140625-.34375l1.4863281-1.484375-1.4863281-1.484375c-.0943001-.0943-.1406251-.20905-.140625-.34375 0-.13471.046405-.24953.140625-.34375l.6875-.6875c.0942999-.0943.2091099-.140625.34375-.140625z" fill="#4d4d4d"/></svg>

<?xml version="1.0" encoding="UTF-8" standalone="no"?>
<svg
   xmlns:dc="http://purl.org/dc/elements/1.1/"
   xmlns:cc="http://creativecommons.org/ns#"
   xmlns:rdf="http://www.w3.org/1999/02/22-rdf-syntax-ns#"
   xmlns:svg="http://www.w3.org/2000/svg"
   xmlns="http://www.w3.org/2000/svg"
   xmlns:sodipodi="http://sodipodi.sourceforge.net/DTD/sodipodi-0.dtd"
   xmlns:inkscape="http://www.inkscape.org/namespaces/inkscape"
   viewBox="0 0 22 22"
   id="svg2"
   version="1.1"
   inkscape:version="0.91 r13725"
   sodipodi:docname="archive-remove.svg">
  <metadata
     id="metadata10">
    <rdf:RDF>
      <cc:Work
         rdf:about="">
        <dc:format>image/svg+xml</dc:format>
        <dc:type
           rdf:resource="http://purl.org/dc/dcmitype/StillImage" />
      </cc:Work>
    </rdf:RDF>
  </metadata>
  <sodipodi:namedview
     pagecolor="#ffffff"
     bordercolor="#666666"
     borderopacity="1"
     objecttolerance="10"
     gridtolerance="10"
     guidetolerance="10"
     inkscape:pageopacity="0"
     inkscape:pageshadow="2"
     inkscape:window-width="640"
     inkscape:window-height="480"
     id="namedview8"
     showgrid="false"
     inkscape:zoom="28.954545"
     inkscape:cx="4.8524333"
     inkscape:cy="11"
     inkscape:current-layer="svg2" />
  <defs
     id="defs3051">
    <style
       type="text/css"
       id="current-color-scheme">
      .ColorScheme-Text {
        color:#4d4d4d
      }
      </style>
  </defs>
  <path
     style="color:#4d4d4d;fill:currentColor;fill-opacity:1;stroke:none"
     d="M 3.8867188 3 C 3.3942209 3 3 3.3575813 3 3.8007812 L 3 18.199219 C 3 18.642419 3.3942209 19 3.8867188 19 L 18.113281 19 C 18.605779 19 19 18.642419 19 18.199219 L 19 3.8007812 C 19 3.3575812 18.605779 3 18.113281 3 L 3.8867188 3 z M 9.3710938 8 C 9.5058038 8 9.6206238 8.046295 9.7148438 8.140625 L 11.199219 9.6269531 L 12.683594 8.140625 C 12.777894 8.046325 12.892584 8 13.027344 8 C 13.161994 8 13.276814 8.046295 13.371094 8.140625 L 14.058594 8.828125 C 14.152794 8.922425 14.199219 9.037165 14.199219 9.171875 C 14.199219 9.306575 14.152924 9.421395 14.058594 9.515625 L 12.572266 11 L 14.058594 12.484375 C 14.152894 12.578675 14.199219 12.693415 14.199219 12.828125 C 14.199219 12.962825 14.152924 13.077645 14.058594 13.171875 L 13.371094 13.859375 C 13.276894 13.953575 13.161994 14 13.027344 14 C 12.892514 14 12.777884 13.953695 12.683594 13.859375 L 11.199219 12.373047 L 9.7148438 13.859375 C 9.6205437 13.953575 9.5058037 14 9.3710938 14 C 9.2364537 14 9.1216338 13.953695 9.0273438 13.859375 L 8.3398438 13.171875 C 8.2455437 13.077575 8.1992187 12.962825 8.1992188 12.828125 C 8.1992188 12.693415 8.2456238 12.578655 8.3398438 12.484375 L 9.8261719 11 L 8.3398438 9.515625 C 8.2455437 9.421325 8.1992187 9.306575 8.1992188 9.171875 C 8.1992188 9.037165 8.2456238 8.922345 8.3398438 8.828125 L 9.0273438 8.140625 C 9.1216437 8.046325 9.2364537 8 9.3710938 8 z "
     id="path6" />
</svg>
